X:1
T:IN PRISON
M:4/4
Q:1/4=120
K:G
G6D2|A2G2D2E2|D6E2|D8|B6A2|c2B2A2G2|d8|B4A2B2|
G2G2G2F2|E6D2|B,2C6|E2A6|E2A4G2|-G2d6|e2d2c2B2|
A2G6|-G3/2||
